X:1
T:Title
L:1/4
M:4/4
I:linebreak $
K:G
V:1 treble nm="Voice"
V:1
"G" G A G F |"C" E D"D" D/D/E/F/ |"G" G A G F | G2 D E/F/ |"G" G A G F |"C" E D"D" D/D/E/F/ | %6
"G" G A G F | G2 B A |:"G" G3/2 A/ G F |"C" E D"D" D/D/E/F/ |"C" G E c B |"D" A2"G" d B | %12
"G" G3/2 A/ G F |"C" E D"D" D/D/E/F/ |"G" G/F/ G"D" A/D/ A |1"G" G2 B A :|2"G" G2 D E/F/ |] %17
